X:95
T:O'Keeffe's Dream
B:Terry "Cuz" Teahan "Sliabh Luachra on Parade" 1980
Z:Patrick Cavanagh
M:2/4
L:1/8
R:Polka
K:D
F | GE BE | GE BA/G/ | FA DA | FA DE/F/ | 
GE BE | GE BB/c/ | dB AF | E2 E :| 
F | G2 GE | F2 FE | DE FB | AF ED | 
G2 GE | F2 FE | DE FB | A2 A :|| 

